48x48/categories/applications-science.svg

<?xml version="1.0" encoding="UTF-8" standalone="no"?>
<svg
   xmlns:dc="http://purl.org/dc/elements/1.1/"
   xmlns:cc="http://creativecommons.org/ns#"
   xmlns:rdf="http://www.w3.org/1999/02/22-rdf-syntax-ns#"
   xmlns:svg="http://www.w3.org/2000/svg"
   xmlns="http://www.w3.org/2000/svg"
   xmlns:sodipodi="http://sodipodi.sourceforge.net/DTD/sodipodi-0.dtd"
   xmlns:inkscape="http://www.inkscape.org/namespaces/inkscape"
   width="47.5"
   height="47.5"
   viewBox="0 0 38 38"
   id="svg2"
   version="1.1"
   inkscape:version="0.48.4 r9939"
   sodipodi:docname="applications-science.svg">
  <metadata
     id="metadata34">
    <rdf:RDF>
      <cc:Work
         rdf:about="">
        <dc:format>image/svg+xml</dc:format>
        <dc:type
           rdf:resource="http://purl.org/dc/dcmitype/StillImage" />
      </cc:Work>
    </rdf:RDF>
  </metadata>
  <defs
     id="defs32" />
  <sodipodi:namedview
     pagecolor="#ffffff"
     bordercolor="#666666"
     borderopacity="1"
     objecttolerance="10"
     gridtolerance="10"
     guidetolerance="10"
     inkscape:pageopacity="0"
     inkscape:pageshadow="2"
     inkscape:window-width="1440"
     inkscape:window-height="848"
     id="namedview30"
     showgrid="false"
     inkscape:zoom="4.9684211"
     inkscape:cx="-8.2521186"
     inkscape:cy="23.347458"
     inkscape:window-x="0"
     inkscape:window-y="0"
     inkscape:window-maximized="1"
     inkscape:current-layer="svg2" />
  <path
     sodipodi:type="arc"
     style="fill:#5b93d7;fill-opacity:1;stroke:none"
     id="path3011"
     sodipodi:cx="-50.133663"
     sodipodi:cy="26.769068"
     sodipodi:rx="27.355743"
     sodipodi:ry="16.90678"
     d="m -22.77792,26.769068 a 27.355743,16.90678 0 1 1 -54.711487,0 27.355743,16.90678 0 1 1 54.711487,0 z"
     transform="matrix(0.70186358,0,0,1.1356391,54.186992,-11.4)" />
  <g
     transform="matrix(0.87545248,0,0,0.87545248,2.4924804,2.1867043)"
     id="g3013"
     style="fill-rule:evenodd">
    <g
       id="g3015">
      <path
         inkscape:connector-curvature="0"
         id="path3017"
         transform="scale(0.14844,0.14844)"
         d="m 76.157895,33.447368 c 0,0 14.578947,-1.473684 30.289475,0.947369 0,0 0.78947,2.921052 -1.76316,3.789474 l -2.39474,24.447368 24.55264,113.526311 c 0,0 5.52631,14.31579 -11.60527,17.42106 -17.157893,3.10526 -42.868419,7.86842 -62.921051,-7.6579 0,0 -4.736842,-6 3.605264,-33.52631 L 78.684211,63.026316 77.789474,38.289474 c 0,0 -3.605263,-3.526316 -1.631579,-4.842106 z"
         style="fill:#ffffff;stroke:#ffffff;stroke-width:7.55999994;stroke-opacity:1" />
      <path
         inkscape:connector-curvature="0"
         id="path3019"
         d="m 18.179688,27.320312 c 0,0.644532 -2.058594,1.164063 -4.597657,1.164063 -2.535156,0 -4.59375,-0.519531 -4.59375,-1.164063 0,-0.644531 2.058594,-1.167968 4.59375,-1.167968 2.539063,0 4.597657,0.523437 4.597657,1.167968 z"
         style="fill:#d2d6cf;fill-opacity:0.46700003" />
      <path
         inkscape:connector-curvature="0"
         id="path3021"
         d="m 17.039062,22.433594 c -3.484374,1.875 -6.082031,1.335937 -7.789062,0.371094 l -0.00391,0.01953 c -0.00391,0.01563 -0.00781,0.02734 -0.00781,0.03906 -0.601562,1.984375 -0.714843,3.148438 -0.699219,3.753907 0.00781,0.222656 0.027344,0.351562 0.046876,0.4375 2.566406,1.828124 5.84375,1.253906 8.332031,0.804687 0.972656,-0.175781 0.984375,-0.429687 1.046875,-0.746094 0.0625,-0.316406 -0.05078,-0.667969 -0.05078,-0.667969 -0.01562,-0.03906 -0.02734,-0.08203 -0.03516,-0.125 z"
         style="fill:#adc3e2" />
      <path
         inkscape:connector-curvature="0"
         id="path3023"
         transform="scale(0.14844,0.14844)"
         d="m 143.36842,70.894737 -0.73684,-20.421053 c 0,0 0.0789,-2.631579 -1.34211,-3.421052 l 1.02632,-2.342106 c 0,0 8.60526,-1.894737 29.3421,0.578948 0,0 3.26316,-0.210527 3.68421,2.631579 0,0 -1.8421,1.894736 -1.68421,5.131579 l -2.39473,19.368421 c 0,0 25.10526,92.921047 31.81579,131.236837 0,0 -3.02632,15.94737 -20.42106,18.73685 -17.36842,2.78947 -52.76315,10.23684 -80.52631,-13.1579 0,0 -9.394738,-6.28947 3.18421,-33.21052 l 34.94737,-95.842109 c 0,0 3.15789,-4.947369 3.60526,-6.605264 0.44737,-1.657894 -0.44737,-2.5 -0.5,-2.68421 z"
         style="fill:#ffffff;stroke:#ffffff;stroke-width:7.55999994;stroke-opacity:1" />
      <path
         inkscape:connector-curvature="0"
         id="path3025"
         d="m 29.039062,30.835938 c 0,1.035156 -2.792968,1.871093 -6.242187,1.871093 -3.445313,0 -6.242187,-0.835937 -6.242187,-1.871093 0,-1.035157 2.796874,-1.875 6.242187,-1.875 3.449219,0 6.242187,0.839843 6.242187,1.875 z"
         style="fill:#d2d6cf;fill-opacity:0.46700003" />
    </g>
    <g
       id="g3027"
       style="fill:#adc3e2">
      <g
         id="g3029"
         style="fill-opacity:0.6">
        <path
           inkscape:connector-curvature="0"
           id="path3031"
           d="m 12.679688,5.929688 0.121093,3.390624 c 0.0039,0.089844 -0.0039,0.179688 -0.02734,0.269532 l -1.339844,5.261718 c 0.464844,0.03516 0.941406,0.214844 1.417968,0.582032 0.90625,0.707031 1.757813,0.585937 2.523438,0.02344 l -1.289065,-5.96094 c -0.01953,-0.097656 -0.02734,-0.195313 -0.01953,-0.292969 l 0.316406,-3.21875 c -0.625,-0.046875 -1.210937,-0.0625 -1.691406,-0.054687 -0.0039,0 -0.0078,0 -0.01172,0 z" />
        <path
           inkscape:connector-curvature="0"
           id="path3033"
           d="m 22.742188,7.679688 c -0.125,0 -0.207032,0.00391 -0.3125,0.00391 l 0.08984,2.574218 c 0.09766,0.246094 0.140625,0.605469 0.04687,0.941407 -0.128906,0.472656 -0.265625,0.609375 -0.402344,0.847656 -0.101562,0.171875 -0.152343,0.25 -0.195312,0.320313 l -2.691406,7.378906 c 1.613281,-0.601563 3.277344,-0.433594 4.421875,1.710937 0,0 2.140625,2.457031 1.605469,-4.300781 -0.05078,-0.648438 -0.02344,-1.222656 0.06641,-1.734375 -0.671875,-2.574219 -1.160156,-4.394531 -1.160156,-4.394531 -0.03906,-0.132813 -0.04688,-0.269532 -0.03125,-0.40625 L 24.53125,7.785156 C 23.820312,7.722656 23.195312,7.683594 22.742188,7.679688 z m -0.382813,2.269531 c 0.0039,0.00781 0.01172,0.019531 0.02344,0.039062 0,-0.00391 -0.0039,-0.011719 -0.0039,-0.015625 -0.01953,-0.023437 -0.03125,-0.039062 -0.01953,-0.023437 z m 0.03125,0.046875 c 0.01172,0.023437 0.02344,0.054687 0.03906,0.078125 -0.01563,-0.03516 -0.03125,-0.05859 -0.03906,-0.078125 z" />
      </g>
      <g
         id="g3035">
        <path
           inkscape:connector-curvature="0"
           id="path3037"
           d="m 17.351562,24.667969 -0.652343,1.785156 c -0.0078,0.02734 -0.01953,0.05469 -0.03125,0.08203 -0.882813,1.886719 -0.933594,2.9375 -0.859375,3.410156 0.03516,0.230469 0.09766,0.328126 0.117187,0.355469 3.679688,3.105469 8.335938,2.121094 10.996094,1.695313 1.613281,-0.257813 1.996094,-1.4375 2.078125,-1.789063 -0.230469,-1.289062 -0.601562,-2.992187 -1.03125,-4.851562 -4.78125,1.183593 -8.269531,0.433593 -10.617188,-0.6875 z" />
      </g>
    </g>
  </g>
</svg>

<svg width="47.5" xmlns="http://www.w3.org/2000/svg" height="47.5" viewBox="0 0 38 38" xmlns:xlink="http://www.w3.org/1999/xlink">
<g style="fill-rule:evenodd">
<g>
<path style="fill:#fff;stroke:#5b93d7;stroke-width:7.56" d="M 76.157895 33.447368 C 76.157895 33.447368 90.736842 31.973684 106.447368 34.394737 C 106.447368 34.394737 107.236842 37.315789 104.684211 38.184211 L 102.289474 62.631579 L 126.842105 176.157895 C 126.842105 176.157895 132.368421 190.473684 115.236842 193.578947 C 98.078947 196.684211 72.368421 201.447368 52.315789 185.921053 C 52.315789 185.921053 47.578947 179.921053 55.921053 152.394737 L 78.684211 63.026316 L 77.789474 38.289474 C 77.789474 38.289474 74.184211 34.763158 76.157895 33.447368 Z " transform="scale(.14844)"/>
<path style="fill:#d2d6cf;fill-opacity:.467" d="M 18.179688 27.320312 C 18.179688 27.964844 16.121094 28.484375 13.582031 28.484375 C 11.046875 28.484375 8.988281 27.964844 8.988281 27.320312 C 8.988281 26.675781 11.046875 26.152344 13.582031 26.152344 C 16.121094 26.152344 18.179688 26.675781 18.179688 27.320312 Z "/>
<path style="fill:#adc3e2" d="M 17.039062 22.433594 C 13.554688 24.308594 10.957031 23.769531 9.25 22.804688 L 9.246094 22.824219 C 9.242188 22.839844 9.238281 22.851562 9.238281 22.863281 C 8.636719 24.847656 8.523438 26.011719 8.539062 26.617188 C 8.546875 26.839844 8.566406 26.96875 8.585938 27.054688 C 11.152344 28.882812 14.429688 28.308594 16.917969 27.859375 C 17.890625 27.683594 17.902344 27.429688 17.964844 27.113281 C 18.027344 26.796875 17.914062 26.445312 17.914062 26.445312 C 17.898438 26.40625 17.886719 26.363281 17.878906 26.320312 Z "/>
<path style="fill:#fff;stroke:#5b93d7;stroke-width:7.56" d="M 143.368421 70.894737 L 142.631579 50.473684 C 142.631579 50.473684 142.710526 47.842105 141.289474 47.052632 L 142.315789 44.710526 C 142.315789 44.710526 150.921053 42.815789 171.657895 45.289474 C 171.657895 45.289474 174.921053 45.078947 175.342105 47.921053 C 175.342105 47.921053 173.5 49.815789 173.657895 53.052632 L 171.263158 72.421053 C 171.263158 72.421053 196.368421 165.342105 203.078947 203.657895 C 203.078947 203.657895 200.052632 219.605263 182.657895 222.394737 C 165.289474 225.184211 129.894737 232.631579 102.131579 209.236842 C 102.131579 209.236842 92.736842 202.947368 105.315789 176.026316 L 140.263158 80.184211 C 140.263158 80.184211 143.421053 75.236842 143.868421 73.578947 C 144.315789 71.921053 143.421053 71.078947 143.368421 70.894737 Z " transform="scale(.14844)"/>
<path style="fill:#d2d6cf;fill-opacity:.467" d="M 29.039062 30.835938 C 29.039062 31.871094 26.246094 32.707031 22.796875 32.707031 C 19.351562 32.707031 16.554688 31.871094 16.554688 30.835938 C 16.554688 29.800781 19.351562 28.960938 22.796875 28.960938 C 26.246094 28.960938 29.039062 29.800781 29.039062 30.835938 Z "/>
</g>
<g style="fill:#adc3e2">
<g style="fill-opacity:.6">
<path d="M 12.679688 5.929688 L 12.800781 9.320312 C 12.804688 9.410156 12.796875 9.5 12.773438 9.589844 L 11.433594 14.851562 C 11.898438 14.886719 12.375 15.066406 12.851562 15.433594 C 13.757812 16.140625 14.609375 16.019531 15.375 15.457031 L 14.085938 9.496094 C 14.066406 9.398438 14.058594 9.300781 14.066406 9.203125 L 14.382812 5.984375 C 13.757812 5.9375 13.171875 5.921875 12.691406 5.929688 C 12.6875 5.929688 12.683594 5.929688 12.679688 5.929688 Z "/>
<path d="M 22.742188 7.679688 C 22.617188 7.679688 22.535156 7.683594 22.429688 7.683594 L 22.519531 10.257812 C 22.617188 10.503906 22.660156 10.863281 22.566406 11.199219 C 22.4375 11.671875 22.300781 11.808594 22.164062 12.046875 C 22.0625 12.21875 22.011719 12.296875 21.96875 12.367188 L 19.277344 19.746094 C 20.890625 19.144531 22.554688 19.3125 23.699219 21.457031 C 23.699219 21.457031 25.839844 23.914062 25.304688 17.15625 C 25.253906 16.507812 25.28125 15.933594 25.371094 15.421875 C 24.699219 12.847656 24.210938 11.027344 24.210938 11.027344 C 24.171875 10.894531 24.164062 10.757812 24.179688 10.621094 L 24.53125 7.785156 C 23.820312 7.722656 23.195312 7.683594 22.742188 7.679688 Z M 22.359375 9.949219 C 22.363281 9.957031 22.371094 9.96875 22.382812 9.988281 C 22.382812 9.984375 22.378906 9.976562 22.378906 9.972656 C 22.359375 9.949219 22.347656 9.933594 22.359375 9.949219 Z M 22.390625 9.996094 C 22.402344 10.019531 22.414062 10.050781 22.429688 10.074219 C 22.414062 10.039062 22.398438 10.015625 22.390625 9.996094 Z "/>
</g>
<g>
<path d="M 17.351562 24.667969 L 16.699219 26.453125 C 16.691406 26.480469 16.679688 26.507812 16.667969 26.535156 C 15.785156 28.421875 15.734375 29.472656 15.808594 29.945312 C 15.84375 30.175781 15.90625 30.273438 15.925781 30.300781 C 19.605469 33.40625 24.261719 32.421875 26.921875 31.996094 C 28.535156 31.738281 28.917969 30.558594 29 30.207031 C 28.769531 28.917969 28.398438 27.214844 27.96875 25.355469 C 23.1875 26.539062 19.699219 25.789062 17.351562 24.667969 Z "/>
</g>
</g>
</g>
</svg>
